elusive/lastfm.svg

<?xml version="1.0" encoding="UTF-8" standalone="no"?>
<!-- Generator: IcoMoon.io -->

<svg
   xmlns:dc="http://purl.org/dc/elements/1.1/"
   xmlns:cc="http://creativecommons.org/ns#"
   xmlns:rdf="http://www.w3.org/1999/02/22-rdf-syntax-ns#"
   xmlns:svg="http://www.w3.org/2000/svg"
   xmlns="http://www.w3.org/2000/svg"
   xmlns:sodipodi="http://sodipodi.sourceforge.net/DTD/sodipodi-0.dtd"
   xmlns:inkscape="http://www.inkscape.org/namespaces/inkscape"
   id="svg2"
   version="1.1"
   data-tags="remove-circle, cancel, close, remove, delete"
   height="1200"
   width="1200"
   data-du=""
   viewBox="0 0 1200 1200"
   inkscape:version="0.48.4 r9939"
   sodipodi:docname="lastfm.svg">

  <path
     d="M 600 0 C 268.62923 0 7.5791225e-14 268.62924 0 600 C 0 931.37101 268.62923 1200 600 1200 C 931.37101 1200 1200 931.37101 1200 600 C 1200 268.629 931.37101 -7.5791225e-14 600 0 z M 390.15625 322.25 C 430.50324 322.3539 452.03463 326.01756 487.21875 338.21875 C 549.13868 359.69099 601.86973 404.09882 638.09375 465.25 C 694.46229 572.77764 743.22979 699.84891 782.875 783.53125 C 835.9583 856.68431 944.37896 853.30003 984.375 808.96875 C 1076.3282 707.04854 936.70542 650.27812 887.625 633.84375 C 832.66411 616.66409 768.14919 586.99049 743.6875 536.4375 C 698.84902 408.73489 781.28589 325.02789 887.625 327.90625 C 920.61653 323.16461 983.32837 342.28131 1024.4375 408.75 L 970.90625 437.78125 C 948.2101 413.75504 915.86262 393.80875 884.78125 393.53125 C 815.5657 383.78313 777.66597 472.07317 819.5 521.125 C 833.61381 535.65717 850.85913 543.64628 916.03125 565.71875 C 1009.1404 597.00709 1077.0325 627.87243 1082.1562 723.84375 C 1088.4787 853.40213 959.79457 931.08958 829.40625 901.03125 C 776.896 886.7754 733.49778 849.46377 705.90625 794.90625 C 657.40027 700.33696 623.46517 584.07413 573.5 500.625 C 531.56496 433.98639 464.67282 397.39829 384.875 397.5 C 287.07158 396.18374 201.44552 473.45476 173.71875 551.375 C 153.0579 634.38351 173.33107 718.60225 231.15625 775.5 C 366.83042 895.76823 516.52663 817.00281 576.0625 732.28125 C 578.57805 732.28125 609.75 799.3136 609.75 804.71875 C 569.24065 853.47339 493.19244 895.68001 437.34375 906.09375 C 407.55331 911.28867 359.64325 911.34199 331.40625 906.21875 C 222.14846 886.39396 131.06933 801.94216 100.34375 692 C 54.739564 508.4222 174.69849 361.91426 312.8125 329.875 C 335.92161 323.77375 347.28792 322.56392 381.8125 322.28125 C 384.67914 322.25778 387.46645 322.24307 390.15625 322.25 z "
     id="path2991"
     style="fill:#000000" />
</svg>

<?xml version="1.0" encoding="utf-8"?>
<!-- Generator: Adobe Illustrator 16.0.0, SVG Export Plug-In . SVG Version: 6.00 Build 0)  -->
<!DOCTYPE svg PUBLIC "-//W3C//DTD SVG 1.1//EN" "http://www.w3.org/Graphics/SVG/1.1/DTD/svg11.dtd">
<svg version="1.1"
	 id="svg2" xmlns:dc="http://purl.org/dc/elements/1.1/" xmlns:cc="http://creativecommons.org/ns#" xmlns:rdf="http://www.w3.org/1999/02/22-rdf-syntax-ns#" xmlns:svg="http://www.w3.org/2000/svg" xmlns:sodipodi="http://sodipodi.sourceforge.net/DTD/sodipodi-0.dtd" xmlns:inkscape="http://www.inkscape.org/namespaces/inkscape" sodipodi:docname="lastfm.svg" inkscape:version="0.48.4 r9939"
	 xmlns="http://www.w3.org/2000/svg" xmlns:xlink="http://www.w3.org/1999/xlink" x="0px" y="0px" width="1200px" height="1200px"
	 viewBox="0 0 1200 1200" enable-background="new 0 0 1200 1200" xml:space="preserve">
<path id="path2991" d="M600,0C268.629,0,0,268.629,0,600c0,331.371,268.629,600,600,600c331.371,0,600-268.629,600-600
	S931.371,0,600,0z M390.156,322.25c40.347,0.104,61.878,3.768,97.062,15.969c61.92,21.473,114.651,65.88,150.875,127.031
	c56.368,107.527,105.136,234.599,144.781,318.281c53.083,73.153,161.504,69.769,201.5,25.438
	c91.953-101.92-47.67-158.69-96.75-175.125c-54.961-17.18-119.476-46.854-143.938-97.406
	c-44.839-127.702,37.599-211.409,143.938-208.531c32.991-4.741,95.703,14.375,136.812,80.844l-53.531,29.031
	c-22.696-24.026-55.044-43.973-86.125-44.25c-69.216-9.748-107.115,78.542-65.281,127.594
	c14.114,14.532,31.359,22.521,96.531,44.594c93.109,31.288,161.001,62.153,166.125,158.125
	c6.322,129.559-122.361,207.246-252.75,177.188c-52.51-14.256-95.908-51.567-123.5-106.125
	C657.4,700.337,623.465,584.074,573.5,500.625C531.564,433.986,464.673,397.398,384.875,397.5
	c-97.803-1.316-183.43,75.955-211.156,153.875c-20.661,83.009-0.388,167.228,57.438,224.125
	c135.674,120.269,285.37,41.503,344.906-43.219c2.516,0,33.688,67.032,33.688,72.438c-40.51,48.755-116.558,90.961-172.406,101.375
	c-29.79,5.195-77.701,5.248-105.938,0.125C222.148,886.394,131.069,801.942,100.344,692
	C54.74,508.422,174.698,361.914,312.812,329.875c23.109-6.102,34.476-7.312,69-7.594
	C384.679,322.258,387.466,322.243,390.156,322.25z"/>
</svg>
